X:1
T:Larry Doolin
T: Mrs Casey
N:from the playing of Sally Sloane
Z:Ian Hayden 2017
L:1/8
M:6/8
K:G
A|:G2E E2E|D2D D2D|E2E EFE|c3 B2A|
|G2E E2E|D2D D2D|EFG A2F|1G3 B2A:|2G3-G2A|
[|G2A B2c|d2d d2B|G2A B2c|d3 B2d|
|e2e d2B|c2c B2A|G2E E2E|c3 B2A|
|G2E E2E|D2D D2D|EFG A2F|G3-G3|]
